X:8785
T:L'Araña
R:Muñeira
C:Tradicional
S:Música Tradicional Asturiana, (C) Tello & Tito. Asturies, 2001.
S:http://pagina.de/MusTradAst <telloytito@asturies.org>
A:Asturies
B:Musicología Asturiana - La Canción Tradicional, Modesto González Cobas
Z:La Canción Tradicional, M.G.C.
M:6/8
L:1/8
Q:3/8=100
W:y eso de matar la araña 
W:yo no lo puedo entender
W:y unos la matan de noche
W:y otros al amanecer
W:y otros al amanecer
K:Am
|EAA BcB|c3/2d/4c/4 B-B3|Bdc Bdc|B3/2c/4B/4 A-A3|
|AAB ccB|A3/2B/4A/4 G-G3|GGA BBA|G2 ^F-F3|GAB cdc|B3/2c/4B/4 A-A3|


